icons/Yaru-dark/24x24/panel/audio-input-microphone.svg

<svg version="1.1" viewBox="0 0 24 24" xmlns="http://www.w3.org/2000/svg">
 <path d="m11.5 3c-1.385 0-2.5 1.115-2.5 2.5v7c0 1.385 1.115 2.5 2.5 2.5 1.385 0 2.5-1.115 2.5-2.5v-7c0-1.385-1.115-2.5-2.5-2.5zm-4.5 8v2a4.5354 4.5 0 0 0 4 3.9648v3.0352c-1.7441 0.07151-3 0.48828-3 0.48828v0.5h3v0.011719h1v-0.01172h3v-0.5c0 1e-6 -1.2559-0.41677-3-0.48828v-3.0352a4.5354 4.5 0 0 0 4-3.9648v-2h-1v2h-0.0117a3.5276 3.5 0 0 1-2.9883 2.9648v-0.46484h-1v0.46484a3.5276 3.5 0 0 1-2.9883-2.9648h-0.011722v-2z" fill="#fff" stroke-width="1.8516"/>
</svg>

<svg viewBox="0 0 24 24" xmlns="http://www.w3.org/2000/svg"><path d="M11.5 3A2.495 2.495 0 0 0 9 5.5v7c0 1.385 1.115 2.5 2.5 2.5s2.5-1.115 2.5-2.5v-7C14 4.115 12.885 3 11.5 3zM7 11v2a4.535 4.5 0 0 0 4 3.965V20c-1.744.072-3 .488-3 .488v.5h3V21h1v-.012h3v-.5s-1.256-.416-3-.488v-3.035A4.535 4.5 0 0 0 16 13v-2h-1v2h-.012A3.528 3.5 0 0 1 12 15.965V15.5h-1v.465A3.528 3.5 0 0 1 8.012 13H8v-2z" fill="#fff"/></svg>
